X: 2418
T: Ballerina, The
R: jig
M: 6/8
K: Amajor
|:Bcc Bdc-|cc dedc|cBB GBA-|Ac/d/e fed:|
|:Bc/c/c Bdc-|ccd edc|cBB GBA-|1 Ac/d/e fed:|2 z G2 F2||
|:EFA dec-|ccd cBA|EFA def|edc cBA|
EFA dec-|ccd cBA|BAG BB/c/d|1 cBA dcA:|2 cBA Bcd||
|:efd fae-|edc dcA|BAG BB/c/d|cBA Bcd:|
fed fae-|edc dcA|BAG BB/c/d|cBA Bcd|
fed fae-|edc dcA|EGB BG/E/E|EdE cAB|EGB BG/E/E|
dFd cEc|EGB BG/E/E|EdE cAB|Bcd cde|cd/e/f efg||

